X: 11498
T: Eddie Duffy's Favourite
R: reel
M: 4/4
K: Amixolydian
||ceed ceed|cAEF G2ed|ceed c2ed|cABG A2ed|
ceed ceed|cAEF G2ed|ceed c2ed|cABG A2cd||
eaag efed|cdef gedg|eaag efed|cABG A2cd|
eaag efed|cdef g2fg|afge fded|cABG A2ed||

